packages/tokens/icons/headset2/size32Px.svg

<svg viewBox="0 0 32 32" fill="none" xmlns="http://www.w3.org/2000/svg" width="1em" height="1em"><path d="M26.5 25V26.5C26.5 27.6046 25.6046 28.5 24.5 28.5H18.5" stroke="currentColor"/><rect x="13.5" y="27.5" width="5" height="2" rx="1" stroke="currentColor"/><path d="M2.5 19.6C2.5 16.7833 4.78335 14.5 7.6 14.5C8.09706 14.5 8.5 14.9029 8.5 15.4V24.6C8.5 25.0971 8.09706 25.5 7.6 25.5C4.78335 25.5 2.5 23.2167 2.5 20.4V19.6Z" stroke="currentColor"/><path d="M29.5 19.6C29.5 16.7833 27.2167 14.5 24.4 14.5C23.9029 14.5 23.5 14.9029 23.5 15.4V24.6C23.5 25.0971 23.9029 25.5 24.4 25.5C27.2167 25.5 29.5 23.2167 29.5 20.4V19.6Z" stroke="currentColor"/><path d="M29.5 20V16C29.5 8.8203 23.1797 3 16 3C8.8203 3 2.5 8.8203 2.5 16V19.5" stroke="currentColor"/></svg>

<svg xmlns="http://www.w3.org/2000/svg" fill="none" viewBox="0 0 32 32" width="1em" height="1em"><path stroke="currentColor" d="M26.5 25v1.5a2 2 0 0 1-2 2h-6"/><rect width="5" height="2" x="13.5" y="27.5" stroke="currentColor" rx="1"/><path stroke="currentColor" d="M2.5 19.6a5.1 5.1 0 0 1 5.1-5.1.9.9 0 0 1 .9.9v9.2a.9.9 0 0 1-.9.9 5.1 5.1 0 0 1-5.1-5.1v-.8Zm27 0a5.1 5.1 0 0 0-5.1-5.1.9.9 0 0 0-.9.9v9.2a.9.9 0 0 0 .9.9 5.1 5.1 0 0 0 5.1-5.1v-.8Z"/><path stroke="currentColor" d="M29.5 20v-4c0-7.18-6.32-13-13.5-13S2.5 8.82 2.5 16v3.5"/></svg>
